X: 1
T: Couragie
M: 6/8
L: 1/8
R: jig
K: Cmaj
g/f/|:e>dc c>dB|c2c c>de|c2c c>de|d2d d>gf|
e>dc e>dc|c2c c>de|^fdg gaf|1g3 g2 g/f/:|2g3 g2 d/c/||
B>AG BAG|d2d d>ef|e>dc e>dc|f2f f>ga|
d>ec c>dB|1c3 c2 d/c/:|2c3 c3||
